X:1131
T:Polska från Fryksdalen
N:jämför "Nu är det jul igen!"
B:Jämför [[http://www.sls.fi/faksimil.php?id=16&page=314|nr 693a]] i [[Notböcker/Äldre dansmelodier]] från [[Platser/Finland]].
B:Jämför [[http://www.smus.se/earkiv/fmk/browselarge.php?lang=sw&katalogid=Sm+18&bildnr=00070|SMUS - katalog Sm18 bild 70]]
B:Jämför [[http://www.smus.se/earkiv/fmk/browselarge.php?lang=sw&katalogid=MMD+65&bildnr=00009|SMUS - katalog MMD65 bild 9]] (nere t.v.)
B:[[http://www.samlingarna.sormlandsspel.se/?page_id=374|Alfred Anderssons notbok]] (pdf) nr 159 sid 135
R:Polska
Z:Klas Krantz, 2006
O:Värmland
L:1/8
M:3/4
K:D
"D"d>c d>A F>A | d>c d>A F>A | d>c d>e f>g | "A7"b>aa2z2 :|]
|: "G"~a2b>a"G"g2 | ~g2a>g"D"f2 | ~f2g>f "A7"e>d |1 c>e"D"d2a2 :|2 c>e"D"d2d2 |]
(:musicend:)

Denna låt har lite [[!lite information]] - varifrån kommer den och vem är den efter? Troligen finns den i [[kategori/Svenska Låtar]].

En annan variant:

(:music:)
